packages/core/src/svgs/tokens/mono/SWETH.svg

<svg width="24" height="24" viewBox="0 0 24 24" fill="none" xmlns="http://www.w3.org/2000/svg">
<path d="M21.1588 14.1177L21.1353 14.147C21.1236 14.1588 21.1118 14.1706 21.1 14.1823L14.1706 21.094C13.5905 21.6728 12.8046 21.9977 11.9853 21.9977C11.1659 21.9977 10.38 21.6728 9.79997 21.094L7.88823 19.1883C7.84604 19.146 7.81544 19.0937 7.79937 19.0362C7.78331 18.9788 7.78232 18.9181 7.79652 18.8602C7.81071 18.8023 7.83959 18.749 7.88038 18.7054C7.92117 18.6619 7.9725 18.6296 8.0294 18.6118C9.78734 18.1089 11.4691 17.3709 13.0294 16.4176C16.0824 14.4471 18.7941 13.6823 21.1588 14.1236V14.1177ZM19.7059 8.4294C22.2646 9.23528 21.9647 11.1177 22 11.8588C19.2 10.3882 15.8294 10.9294 11.8941 13.4706C8.95293 15.3705 6.49999 16.1529 4.51764 15.8235C2.53529 15.4883 2.08823 13.0646 2 12.4235C4.17646 13.5235 7.0941 12.8942 10.7588 10.5294C14.1706 8.32351 17.1471 7.62351 19.7059 8.4294ZM14.1765 2.89998L15.9705 4.69998C16.014 4.74444 16.0448 4.79977 16.0596 4.86017C16.0744 4.92059 16.0727 4.98387 16.0547 5.04339C16.0367 5.10291 16.0029 5.15649 15.9571 5.19853C15.9112 5.24057 15.855 5.26951 15.7942 5.28234C13.1941 5.81175 11.1117 6.57646 9.55291 7.57646C6.87646 9.30591 4.59999 10.1058 2.71764 9.9882L9.79997 2.90587C10.38 2.32719 11.1659 2.0022 11.9853 2.0022C12.8046 2.0022 13.5905 2.32719 14.1706 2.90587L14.1765 2.89998Z" fill="white"/>
</svg>

<svg xmlns="http://www.w3.org/2000/svg" width="24" height="24" fill="none" viewBox="0 0 24 24">
    <path fill="#fff" d="m21.159 14.118-.024.029-.035.035-6.93 6.912a3.094 3.094 0 0 1-4.37 0l-1.912-1.906a.348.348 0 0 1 .141-.576 20.3 20.3 0 0 0 5-2.194q4.581-2.956 8.13-2.294zm-1.453-5.689c2.559.806 2.259 2.689 2.294 3.43q-4.201-2.203-10.106 1.612c-2.941 1.9-5.394 2.682-7.376 2.352-1.983-.335-2.43-2.758-2.518-3.4q3.263 1.652 8.759-1.894c3.412-2.205 6.388-2.905 8.947-2.1M14.176 2.9l1.794 1.8a.347.347 0 0 1-.176.582q-3.901.795-6.241 2.294c-2.677 1.73-4.953 2.53-6.835 2.412L9.8 2.906a3.094 3.094 0 0 1 4.37 0z"/>
</svg>
